priv/static/svgs/icons_new/sport-lo-l.svg

<svg width="32" height="32" viewBox="0 0 32 32" fill="none" xmlns="http://www.w3.org/2000/svg">
<path d="M8.96182 21.5457C7.56278 20.0392 6.65834 18.0751 6.51873 15.8864C6.38424 13.778 6.98056 11.79 8.09446 10.1588M24.9749 18.3595C25.378 17.2282 25.5623 16.0013 25.4813 14.7307C25.2629 11.3069 23.1727 8.43251 20.2454 7M12.951 12.6557V19.8506C12.951 21.1062 12.3877 22.2986 11.41 23.1129C10.6342 23.7591 11.1017 25 12.121 25H22.8067C23.2415 25 23.6541 24.8121 23.9339 24.4867L24.6806 23.618C25.4855 22.6817 24.8045 21.253 23.5534 21.253H18.5228C17.7097 21.253 17.0505 20.6087 17.0505 19.8139V7.29694H12.5711C11.4806 7.29694 10.9084 8.56236 11.6425 9.35065C12.4844 10.2547 12.951 11.4332 12.951 12.6557Z" stroke="black" stroke-linecap="round"/>
</svg>

<svg width="32" height="32" viewBox="0 0 32 32" fill="none" xmlns="http://www.w3.org/2000/svg">
  <symbol id="item" viewBox="0 0 32 32" stroke-width="1" fill="none">
    <path d="M8.962 21.546a9.143 9.143 0 0 1-2.443-5.66 9.09 9.09 0 0 1 1.575-5.727m16.88 8.2a9.065 9.065 0 0 0 .507-3.628c-.218-3.424-2.308-6.298-5.236-7.731m-7.294 5.656v7.195a4.247 4.247 0 0 1-1.541 3.262c-.776.646-.308 1.887.711 1.887h10.686c.434 0 .847-.188 1.127-.513l.747-.869c.804-.936.123-2.365-1.128-2.365h-5.03c-.813 0-1.473-.644-1.473-1.44V7.298h-4.479c-1.09 0-1.663 1.265-.928 2.054a4.848 4.848 0 0 1 1.308 3.305Z" stroke="currentColor" stroke-linecap="round"/>
  </symbol>
</svg>
